X:1
T:San Rafael, 87.87 D
T:San Rafael, 87.87 D
T:William Fiske Sherwin, 1884
T:Public Domain Courtesy of the Cyber Hymnal™
C:William Fiske Sherwin, 1884
Z:Public Domain
Z:Courtesy of the Cyber Hymnal™
%%score ( 1 2 ) ( 3 4 )
L:1/8
Q:1/4=108
M:4/4
K:C
V:1 treble 
V:2 treble 
V:3 bass 
V:4 bass 
V:1
 [EG]2 E2 [^DA]3 [DA] | [EG]2 E2 [^DA]2 [DA]2 | [EG]2 [CE]2 [Ec]3 [Ec] | [DB]2 [CA]2 G4 | %4
 [EG]2 E2 [^DA]3 [DA] | [EG]2 E2 [^DA]2 [DA]2 | [EG]2 [Ec]2 [Fd]2 [Ec]2 | [DB]2 [DA]2 [DG]4 | %8
 [Ge]2 [^F^d]2 [Ge]3 [=F=d] | [Ec]2 [FA]2 [EG]2 [CE]2 | [EG]2 [Gc]2 [Fc]3 [FB] | %11
 [FB]2 [Ec]2 [Gd]4 | [Ge]2 [^F^d]2 [Ge]3 [=F=d] | [Ec]2 [FA]2 [EG]2 [CE]2 | %14
 [B,F]2 [CG]2 [CA]2 [Fd]2 | [Ec]2 [DB]2 [Ec]4 |] %16
V:2
 x2 E2 x4 | x2 E2 x4 | x8 | x4 (B,2 D2) | x2 E2 x4 | x2 E2 x4 | x8 | x8 | x8 | x8 | x8 | x8 | x8 | %13
 x8 | x8 | x8 |] %16
V:3
 [C,G,]2 [C,G,]2 [C,^F,]3 [C,F,] | [C,G,]2 [C,G,]2 [C,^F,]2 [C,F,]2 | %2
 [C,G,]2 [C,G,]2 [C,G,]3 [C,G,] | [D,G,]2 [D,^F,]2 [G,,G,]4 | [C,G,]2 [C,G,]2 [C,^F,]3 [C,F,] | %5
 [C,G,]2 [C,G,]2 [C,^F,]2 [C,F,]2 | [C,G,]2 [C,G,]2 [B,,G,]2 [C,G,]2 | [D,G,]2 [D,C]2 [G,B,]4 | %8
 [C,C]2 [C,C]2 [C,C]3 [C,G,] | [C,G,]2 [C,C]2 [C,C]2 [C,G,]2 | [C,C]2 [E,C]2 [G,D]3 [G,D] | %11
 [G,D]2 [G,C]2 [G,B,]4 | C2 C2 C3 [G,B,] | [A,C]2 [F,C]2 [C,C]2 [C,G,]2 | %14
 [D,G,]2 [E,G,]2 F,2 [F,A,]2 | G,2 [G,,G,]2 [C,G,]4 |] %16
V:4
 x8 | x8 | x8 | x8 | x8 | x8 | x8 | x8 | x8 | x8 | x8 | x8 | C2 C2 C3 x | x8 | x4 F,2 x2 | %15
 G,2 x6 |] %16

